assets/images/Header/Links/partners.svg

<svg width="32" height="32" viewBox="0 0 32 32" fill="none" xmlns="http://www.w3.org/2000/svg">
<path d="M27.3013 7.81267C27.2998 7.81267 27.2983 7.81248 27.2969 7.81248H20.9219V7.10936C20.9219 5.94627 19.9756 4.99998 18.8125 4.99998H13.1875C12.0244 4.99998 11.0781 5.94627 11.0781 7.10936V7.81248H4.70312C4.31165 7.81248 4 8.13329 4 8.51561V23.9844C4 25.1474 4.94629 26.0937 6.10938 26.0937H25.8906C27.0537 26.0937 28 25.1474 28 23.9844V8.53044C28 8.52953 28 8.52861 28 8.52769C27.9731 8.0659 27.6891 7.81523 27.3013 7.81267V7.81267ZM12.4844 7.10936C12.4844 6.72173 12.7999 6.40623 13.1875 6.40623H18.8125C19.2001 6.40623 19.5156 6.72173 19.5156 7.10936V7.81248H12.4844V7.10936ZM26.3213 9.21873L24.1378 15.7691C24.042 16.0568 23.7739 16.25 23.4709 16.25H19.5156V15.5469C19.5156 15.1585 19.2009 14.8437 18.8125 14.8437H13.1875C12.7991 14.8437 12.4844 15.1585 12.4844 15.5469V16.25H8.52911C8.22607 16.25 7.95801 16.0568 7.86224 15.7691L5.67871 9.21873H26.3213ZM18.1094 16.25V17.6562H13.8906V16.25H18.1094ZM26.5938 23.9844C26.5938 24.372 26.2783 24.6875 25.8906 24.6875H6.10938C5.72174 24.6875 5.40625 24.372 5.40625 23.9844V12.8484L6.52814 16.2139C6.81561 17.0767 7.61981 17.6562 8.52911 17.6562H12.4844V18.3594C12.4844 18.7477 12.7991 19.0625 13.1875 19.0625H18.8125C19.2009 19.0625 19.5156 18.7477 19.5156 18.3594V17.6562H23.4709C24.3802 17.6562 25.1844 17.0767 25.4719 16.2139L26.5938 12.8484V23.9844Z" fill="#565656"/>
</svg>

<svg xmlns="http://www.w3.org/2000/svg" width="32" height="32" fill="none" viewBox="0 0 32 32"><path fill="#565656" d="M27.301 7.813h-6.379v-.704c0-1.163-.946-2.109-2.11-2.109h-5.625c-1.163 0-2.109.946-2.109 2.11v.702H4.703A.705.705 0 0 0 4 8.516v15.468c0 1.163.946 2.11 2.11 2.11h19.78c1.164 0 2.11-.947 2.11-2.11V8.53v-.002c-.027-.462-.31-.713-.699-.715zm-14.817-.704c0-.387.316-.703.704-.703h5.624c.388 0 .704.316.704.703v.703h-7.032V7.11zm13.837 2.11l-2.183 6.55a.702.702 0 0 1-.667.481h-3.955v-.703a.703.703 0 0 0-.703-.703h-5.625a.703.703 0 0 0-.704.703v.703H8.53a.702.702 0 0 1-.667-.48L5.68 9.218H26.32zM18.11 16.25v1.406h-4.218V16.25h4.218zm8.485 7.734a.704.704 0 0 1-.703.703H6.109a.704.704 0 0 1-.703-.703V12.848l1.122 3.366a2.106 2.106 0 0 0 2.001 1.442h3.955v.703c0 .389.315.703.704.703h5.624a.703.703 0 0 0 .704-.703v-.703h3.955c.91 0 1.713-.58 2-1.442l1.123-3.366v11.136z"/></svg>
